X:1
T:Manchester New, CM
T:Robert Wainright, 1774
T:Manchester New, CM
T:Public Domain
C:Robert Wainright, 1774
Z:Public Domain
%%score ( 1 2 ) ( 3 4 )
L:1/8
M:3/4
K:Eb
V:1 treble 
V:2 treble 
V:3 bass 
V:4 bass 
V:1
 E2 | [EG]4 [DF]2 | E4 [Ee]2 | (d2 B2) (ED) | [EG]4 [Ge]2 | ([EB]2 [DA]2) [EG]2 | %6
 ([Ec]2 [Ad]2) [Ge]2 | ([EG]2 [DF]2) [DF]2 | (E2 F2) [EG]2 | [Ec]4 [EB]2 | ([DB]2 [FA]2) [EG]2 | %11
 ([EG]2 [DF]2) [Fd]2 | ([Ee]2 [DA]2) [EG]2 | ([FA]2 [EG]2) [DF]2 | E4 |] %15
V:2
 E2 | x6 | E4 x2 | E4 A2 | x6 | x6 | x6 | x6 | A4 x2 | x6 | x6 | x6 | x6 | x6 | E4 |] %15
V:3
 [E,G,]2 | [E,B,]4 [B,,B,]2 | [C,G,]4 [G,,B,]2 | [A,,A,]2 [B,,G,]2 [B,,B,]2 | [E,B,]4 [E,B,]2 | %5
 (G,2 F,2) [E,B,]2 | ([A,C][G,B,] [F,A,]2) [E,B,]2 | B,4 [B,,D]2 | ([C,C]2 [D,B,]2) [E,B,]2 | %9
 A,4 [G,B,]2 | (F,2 D,2) [E,B,]2 | B,4 (B,A,) | (G,2 F,2) [E,B,]2 | ([A,,C]2 [B,,B,]2) (B,A,) | %14
 [E,G,]4 |] %15
V:4
 x2 | x6 | x6 | x6 | x6 | B,4 x2 | x6 | B,4 x2 | x6 | A,4 x2 | B,4 x2 | B,4 B,2 | B,4 x2 | %13
 x4 B,,2 | x4 |] %15

